app/dist/common/images/zhejiang-xinan-chemical-industrial-coltd.svg

<svg height="18" viewBox="0 0 18 18" width="18" xmlns="http://www.w3.org/2000/svg"><path d="m0 0h18v18h-18z" fill="#f0f3fa"/><path d="m5 12v-6h1v4.24l2.98-4.24h1.02v4.24l2.7-4.24h1.3l-3.8 6h-1.2v-4.12l-2.72 4.12z" fill="#007bd2"/></svg>

<!-- by TradingView --><svg width="18" height="18" viewBox="0 0 18 18" xmlns="http://www.w3.org/2000/svg"><path fill="#F0F3FA" d="M0 0h18v18H0z"/><path d="M5 12V6h1v4.24L8.98 6H10v4.24L12.7 6H14l-3.8 6H9V7.88L6.28 12H5Z" fill="#007BD2"/></svg>
